assets/layout/images/form/button-arrow.svg

<svg fill="none" height="11" viewBox="0 0 7 11" width="7" xmlns="http://www.w3.org/2000/svg"><path d="m1.49994 10.9999c-.13161.0008-.26207-.0244-.38391-.0742-.121835-.0498-.232651-.1231-.326091-.2158-.093728-.0929-.168123-.2035-.218891-.3254-.050769-.1219-.076907-.2526-.076907-.38457 0-.13201.026138-.26272.076907-.38458.050768-.12186.125163-.23246.218891-.32542l3.310001-3.29-3.180001-3.31c-.186251-.18736-.290792-.44082-.290792-.705 0-.26419.104541-.51764.290792-.705.092961-.09373.203561-.16812.325421-.21889s.25257-.076909.38458-.076909.26272.026139.38458.076909.23246.12516.32542.21889l3.86 4c.18323.18693.28586.43825.28586.7s-.10263.51307-.28586.7l-4 3.99997c-.08976.097-.19783.1751-.31798.2301-.12015.0549-.24999.0855-.38202.0899z" fill="#8b8f9d"/></svg>

<svg width="7" height="11" viewBox="0 0 7 11" fill="none" xmlns="http://www.w3.org/2000/svg">
<path d="M1.49994 10.9999C1.36833 11.0007 1.23787 10.9755 1.11603 10.9257C0.994195 10.8759 0.883379 10.8026 0.789939 10.7099C0.696211 10.617 0.621816 10.5064 0.571048 10.3845C0.520279 10.2626 0.494141 10.1319 0.494141 9.99993C0.494141 9.86792 0.520279 9.73721 0.571048 9.61535C0.621816 9.49349 0.696211 9.38289 0.789939 9.28993L4.09994 5.99993L0.919939 2.68993C0.733688 2.50257 0.629147 2.24911 0.629147 1.98493C0.629147 1.72074 0.733688 1.46729 0.919939 1.27993C1.0129 1.1862 1.1235 1.11181 1.24536 1.06104C1.36722 1.01027 1.49793 0.984131 1.62994 0.984131C1.76195 0.984131 1.89266 1.01027 2.01452 1.06104C2.13638 1.11181 2.24698 1.1862 2.33994 1.27993L6.19994 5.27993C6.38317 5.46686 6.4858 5.71818 6.4858 5.97993C6.4858 6.24168 6.38317 6.493 6.19994 6.67993L2.19994 10.6799C2.11018 10.7769 2.00211 10.855 1.88196 10.91C1.76181 10.9649 1.63197 10.9955 1.49994 10.9999Z" fill="#8B8F9D"/>
</svg>
